icons-rebrand/svg/add-video-marker-bold.svg

<svg width="32" height="32" viewBox="0 0 32 32" fill="none" xmlns="http://www.w3.org/2000/svg">
<path d="M23.6149 2H8.38491C7.20064 2.02365 6.07405 2.51587 5.25208 3.36877C4.43011 4.22167 3.97982 5.36566 3.99991 6.55V20.545C3.99208 21.3089 4.17645 22.0625 4.53608 22.7365C4.8957 23.4105 5.41902 23.9832 6.05791 24.402L13.2879 29.201C14.0986 29.7225 15.0425 29.9992 16.0064 29.998C16.9704 29.9967 17.9136 29.7176 18.7229 29.194L25.9309 24.41C26.5724 23.9914 27.0982 23.418 27.4597 22.7427C27.8213 22.0674 28.0071 21.312 27.9999 20.546V6.55C28.0203 5.36558 27.5701 4.22144 26.748 3.36848C25.926 2.51553 24.7993 2.02339 23.6149 2ZM25.9999 20.546C26.0028 20.9789 25.8979 21.4058 25.6947 21.7881C25.4915 22.1704 25.1963 22.4961 24.8359 22.736L17.6259 27.521C17.1428 27.8321 16.5806 27.9982 16.0059 27.9994C15.4313 28.0006 14.8684 27.837 14.3839 27.528L7.15291 22.728C6.79512 22.4879 6.5025 22.1628 6.30127 21.7818C6.10004 21.4008 5.99649 20.9759 5.99991 20.545V6.55C5.97966 5.89602 6.2192 5.26063 6.66613 4.78277C7.11307 4.30492 7.73104 4.02348 8.38491 4H23.6149C24.2688 4.02348 24.8868 4.30492 25.3337 4.78277C25.7806 5.26063 26.0202 5.89602 25.9999 6.55V20.545V20.546Z" fill="#0F0F0F"/>
<path d="M20 14H17V11C17 10.7348 16.8946 10.4804 16.7071 10.2929C16.5196 10.1054 16.2652 10 16 10C15.7348 10 15.4804 10.1054 15.2929 10.2929C15.1054 10.4804 15 10.7348 15 11V14H12C11.7348 14 11.4804 14.1054 11.2929 14.2929C11.1054 14.4804 11 14.7348 11 15C11 15.2652 11.1054 15.5196 11.2929 15.7071C11.4804 15.8946 11.7348 16 12 16H15V19C15 19.2652 15.1054 19.5196 15.2929 19.7071C15.4804 19.8946 15.7348 20 16 20C16.2652 20 16.5196 19.8946 16.7071 19.7071C16.8946 19.5196 17 19.2652 17 19V16H20C20.2652 16 20.5196 15.8946 20.7071 15.7071C20.8946 15.5196 21 15.2652 21 15C21 14.7348 20.8946 14.4804 20.7071 14.2929C20.5196 14.1054 20.2652 14 20 14Z" fill="#0F0F0F"/>
</svg>

<svg width="32" height="32" viewBox="0 0 32 32" fill="none" xmlns="http://www.w3.org/2000/svg"><path d="M23.615 2H8.385A4.475 4.475 0 0 0 4 6.55v13.995a4.556 4.556 0 0 0 2.058 3.857l7.23 4.799a5.013 5.013 0 0 0 5.435-.007l7.208-4.784A4.563 4.563 0 0 0 28 20.546V6.55A4.474 4.474 0 0 0 23.615 2zM26 20.546a2.61 2.61 0 0 1-1.164 2.19l-7.21 4.785a3.004 3.004 0 0 1-3.242.007l-7.231-4.8A2.604 2.604 0 0 1 6 20.545V6.55A2.475 2.475 0 0 1 8.385 4h15.23A2.475 2.475 0 0 1 26 6.55v13.995z" fill="#0F0F0F"/><path d="M20 14h-3v-3a1 1 0 1 0-2 0v3h-3a1 1 0 1 0 0 2h3v3a1 1 0 0 0 2 0v-3h3a1 1 0 1 0 0-2z" fill="#0F0F0F"/></svg>
